X:1
T:Title
%%score { ( 1 3 ) | ( 2 4 ) }
L:1/8
M:4/4
K:Bb
V:1 treble nm="Grand Piano"
V:3 treble 
V:2 bass 
V:4 bass 
V:1
 z4 z2[Q:1/4=100] F2 | [DB]2 [Fd]2 [Fd]2 [FB]2 | [EG]2 [Ec]2 [=Ec]2 [EB]2 | A2 E2 A3 G | %4
[M:3/4] [DF]6 |[M:1/4] [DF]2 |[M:4/4] [DB]2 [Fd]2 [Fd]2 [FB]2 | [EG]2 [Ec]2 [=Ec]2 [EB]2 | %8
 A2 F2 d3 c |[M:3/4] [DB]6 |[M:1/4] [B,D][CE] |[M:4/4] [DF]2 [Fd]2 [Fd]2 [Ec]2 | B6 z2 | B4 [Gc]4 | %14
 [^Fd]6 [FA]2 | B2 AG B2 [Gc]2 | [^Fd]6 [Gd]2 | [Ae]2 c2 d2 [FB][FB] | [Fc]2 [FA][FA] [FB]2 [FA]G | %19
 B2 B4 AG | z4 z2 .B2 | z4 z2 c2 | [Ff]6 ee | d4 c4 |[M:3/4] [DB]6 |] %25
V:2
 z4 z2 F,2 | [B,,F,]2 [B,,B,]2 [B,,B,]2 [D,B,]2 | [E,B,]2 [E,G,]2 [C,G,]2 [C,C]2 | %3
 [F,CF]2 [F,A,C]2 [F,CE]3 [F,A,E] |[M:3/4] [B,,B,]6 |[M:1/4] [B,,B,]2 | %6
[M:4/4] [B,,G,]2 [B,,B,]2 [B,,B,]2 [D,B,]2 | [E,B,]2 [E,G,]2 [C,G,]2 [C,C]2 | %8
 [F,CF]2 [F,A,E]2 [F,A,F]3 [F,E] |[M:3/4] [B,,F,]6 |[M:1/4] [B,,F,]2 |[M:4/4] [B,,B,]4 [F,A,]4 | %12
 [B,,B,]2 [B,,G,]2 [B,,F,]2 [B,D][A,CE] | E2 z2 B,2 z2 | [D,A,]6 [D,D]2 | %15
 [G,DG]2 [G,CD][G,B,D] [G,DG]2[K:bass] [E,G,]2 | [D,A,]6 [G,B,]2 | %17
 [F,C]2 [F,A,F]2 [B,F]2 [D,B,][D,B,] | [C,A,]2 [F,C][E,C] [D,B,]2 [E,B,][E,B,E] | %19
 [G,B,D]2 [G,B,D]4 [G,B,D][G,B,D] | [F,A,F]2 [F,A,F]4 D,E, | %21
 [F,B,F]2 [F,B,F][F,B,F] [F,A,F]2 .[E,A,F]2 | [D,B,]6 [E,B,]2 | %23
 [F,B,F]2 [F,B,][F,B,] [F,A,E]2 [F,,F,]2 |[M:3/4] [B,,F,]6 |] %25
V:3
 x8 | x8 | x8 | x8 |[M:3/4] x6 |[M:1/4] x2 |[M:4/4] x8 | x8 | x8 |[M:3/4] x6 |[M:1/4] x2 | %11
[M:4/4] x8 | D2 E2 D2 FF | z2 D2 z2 G,2 | x8 | x8 | x8 | x8 | x8 | x8 | c2 c4 [B,F]-[B,Fc] | %21
 d2 dd e2 z C | z4 z2 G2 | z2 FF z2 E2 |[M:3/4] x6 |] %25
V:4
 x8 | x8 | x8 | x8 |[M:3/4] x6 |[M:1/4] x2 |[M:4/4] x8 | x8 | x8 |[M:3/4] x6 |[M:1/4] x2 | %11
[M:4/4] x8 | x8 | [G,B,]4 E,4 | x8 | x6[K:bass] x2 | x8 | x8 | x8 | x8 | x8 | x8 | x8 | x8 | %24
[M:3/4] x6 |] %25

